src/distro-icons/ubuntu-studio.svg

<svg width="512" height="512" fill="none" xmlns="http://www.w3.org/2000/svg">
<circle cx="256" cy="256" r="256" fill="#fff"/>
<path fill-rule="evenodd" clip-rule="evenodd" d="M246.885 9.604c-48.043 2.392-90.77 16.419-128.638 42.23C-9.787 139.106-26.674 321.26 83.104 430.887c109.763 109.612 291.965 91.474 377.979-37.628 82.361-123.62 38.259-291.579-93.929-357.716-37.027-18.525-80.563-27.914-120.269-25.938Zm72.419 39.106c34.313 9.916 65.779 28.446 89.573 52.752 5.511 5.631 7.707 10.091 7.97 16.191.71 16.476-18.472 27.345-32.147 18.212-.836-.558-3.673-3.117-6.306-5.688-21.465-20.958-42.145-33.175-70.557-41.683-2.589-.776-5.291-1.703-6.004-2.06-17.321-8.695-13.156-35.639 5.956-38.532 5.193-.787 6.249-.713 11.515.808Zm-54.535 63.198c91.777 6.019 154.421 92.686 131.576 182.032-22.684 88.712-121.498 134.627-203.967 94.774-19.29-9.322-39.971-25.604-44.38-34.941-5.914-12.524 2.827-25.908 17.258-26.425 6.664-.24 10.363 1.298 16.067 6.68 46.785 44.137 117.996 39.533 157.651-10.196 47.394-59.434 18.645-148.932-54.532-169.766-37.194-10.589-74.315-.833-104.306 27.413-11.135 10.488-25.701 8.559-31.988-4.236-3.966-8.071-2.067-20.064 3.634-22.96.597-.302 2.411-1.826 4.033-3.389 28.056-27.007 68.88-41.615 108.954-38.986Zm-2.81 67.956c41.236 3.744 71.846 38.326 70.558 79.713-1.31 42.097-35.139 75.114-76.963 75.114-49.731 0-86.176-46.321-74.982-95.298 8.487-37.13 43.778-62.943 81.387-59.529ZM74.49 187.416c8.93 2.193 15.125 11.573 13.87 21.003-.162 1.21-.794 4.162-1.404 6.56-7.323 28.697-7.313 54.31.031 83.56 1.75 6.973 1.744 10.606-.029 15.018-5.761 14.325-25.604 17.066-35.473 4.901-5.643-6.956-11.155-37.487-11.161-61.819-.005-21.479 5.08-52.514 9.678-59.053 6.191-8.808 15.05-12.487 24.488-10.17Zm60.619 16.985c13.17 2.079 20.351 13.672 16.926 27.327-4.522 18.037-4.566 32.151-.152 50.438 2.307 9.564 1.047 15.374-4.624 21.315-11.092 11.625-28.733 6.241-32.937-10.052-5.618-21.777-6.227-43.47-1.813-64.539 2.435-11.621 4.118-16.225 6.972-19.079 4.094-4.094 10.315-6.248 15.628-5.41Zm116.247 13.281c-29.521 4.104-44.903 37.476-28.572 61.989 21.527 32.31 72.261 16.772 72.261-22.132 0-22.949-21.861-42.892-43.689-39.857Zm145.471 158.91c15.869 3.509 22.418 22.337 11.948 34.362-8.934 10.26-28.438 25.475-44.365 34.606-17.273 9.904-46.342 21.206-55.709 21.659-17.564.851-28.232-18.965-17.488-32.483 3.026-3.809 6.071-5.573 13.465-7.8 29.16-8.781 48.595-20.353 71.77-42.737 7.433-7.179 12.967-9.245 20.379-7.607Z" fill="#049CFC"/>
</svg>

<svg width="512" height="512" viewBox="0 0 512 512" fill="none" xmlns="http://www.w3.org/2000/svg">
<circle cx="256" cy="256" r="256" fill="white"/>
<path fill-rule="evenodd" clip-rule="evenodd" d="M246.885 9.60379C198.842 11.9964 156.115 26.0228 118.247 51.8349C-9.78671 139.105 -26.6745 321.26 83.104 430.886C192.867 540.498 375.069 522.36 461.083 393.258C543.444 269.638 499.342 101.679 367.154 35.5423C330.127 17.0168 286.591 7.62759 246.885 9.60379ZM319.304 48.7102C353.617 58.6257 385.083 77.1564 408.877 101.462C414.388 107.093 416.584 111.553 416.847 117.653C417.557 134.129 398.375 144.998 384.7 135.865C383.864 135.307 381.027 132.748 378.394 130.177C356.929 109.219 336.249 97.0015 307.837 88.4937C305.248 87.7183 302.546 86.7909 301.833 86.4332C284.512 77.7389 288.677 50.795 307.789 47.9016C312.982 47.1147 314.038 47.1888 319.304 48.7102ZM264.769 111.908C356.546 117.927 419.19 204.594 396.345 293.94C373.661 382.652 274.847 428.567 192.378 388.714C173.088 379.392 152.407 363.11 147.998 353.773C142.084 341.249 150.825 327.865 165.256 327.348C171.92 327.108 175.619 328.646 181.323 334.028C228.108 378.165 299.319 373.561 338.974 323.832C386.368 264.398 357.619 174.9 284.442 154.066C247.248 143.477 210.127 153.233 180.136 181.479C169.001 191.967 154.435 190.038 148.148 177.243C144.182 169.172 146.081 157.179 151.782 154.283C152.379 153.981 154.193 152.457 155.815 150.894C183.871 123.887 224.695 109.279 264.769 111.908ZM261.959 179.864C303.195 183.608 333.805 218.19 332.517 259.577C331.207 301.674 297.378 334.691 255.554 334.691C205.823 334.691 169.378 288.37 180.572 239.393C189.059 202.263 224.35 176.45 261.959 179.864ZM74.4902 187.416C83.4208 189.609 89.6151 198.989 88.3594 208.419C88.1984 209.629 87.5661 212.581 86.9555 214.979C79.6332 243.676 79.6434 269.289 86.9874 298.539C88.7375 305.512 88.7311 309.145 86.958 313.557C81.1968 327.882 61.3542 330.623 51.4847 318.458C45.8422 311.502 40.33 280.971 40.3236 256.639C40.3185 235.16 45.404 204.125 50.0015 197.586C56.1933 188.778 65.0511 185.099 74.4902 187.416ZM135.109 204.401C148.279 206.48 155.46 218.073 152.035 231.728C147.513 249.765 147.469 263.879 151.883 282.166C154.19 291.73 152.93 297.54 147.259 303.481C136.167 315.106 118.526 309.722 114.322 293.429C108.704 271.652 108.095 249.959 112.509 228.89C114.944 217.269 116.627 212.665 119.481 209.811C123.575 205.717 129.796 203.563 135.109 204.401ZM251.356 217.682C221.835 221.786 206.453 255.158 222.784 279.671C244.311 311.981 295.045 296.443 295.045 257.539C295.045 234.59 273.184 214.647 251.356 217.682ZM396.827 376.592C412.696 380.101 419.245 398.929 408.775 410.954C399.841 421.214 380.337 436.429 364.41 445.56C347.137 455.464 318.068 466.766 308.701 467.219C291.137 468.07 280.469 448.254 291.213 434.736C294.239 430.927 297.284 429.163 304.678 426.936C333.838 418.155 353.273 406.583 376.448 384.199C383.881 377.02 389.415 374.954 396.827 376.592Z" fill="#049CFC"/>
<circle cx="434.5" cy="434.5" r="77.5" fill="white"/>
<path d="M425.077 383.035L389.695 383.035C388.859 383.035 388.182 383.713 388.182 384.549C388.182 385.385 388.859 386.063 389.695 386.063L422.466 386.063C422.7 385.715 422.942 385.369 423.192 385.024L424.3 383.494L425.077 383.035Z" fill="#E91F63"/>
<path d="M414.021 402.627C413.758 403.326 413.481 404.062 413.201 404.832L375.77 404.832C374.934 404.832 374.256 404.154 374.256 403.318C374.256 402.482 374.934 401.805 375.77 401.805L414.365 401.805L414.256 402.001L414.021 402.627Z" fill="#E91F63" fill-opacity="0.7"/>
<path d="M409.981 420.271L369.715 420.271C368.879 420.271 368.201 420.949 368.201 421.785C368.201 422.621 368.879 423.299 369.715 423.299L409.566 423.299C409.574 423.255 409.583 423.211 409.591 423.168L409.6 423.123C409.788 422.168 409.911 421.53 409.988 421.029C409.983 420.775 409.98 420.523 409.981 420.271Z" fill="#E91F63" fill-opacity="0.3"/>
<path d="M411.238 439.041L368.201 439.041C367.365 439.041 366.688 439.719 366.688 440.555C366.688 441.391 367.365 442.068 368.201 442.068L413.542 442.068C413.244 441.681 412.941 441.299 412.632 440.922C412.101 440.306 411.639 439.677 411.238 439.041Z" fill="#E91F63"/>
<path d="M422.95 457.508L372.742 457.508C371.906 457.508 371.229 458.186 371.229 459.021C371.229 459.857 371.906 460.535 372.742 460.535L424.569 460.535C424.27 459.958 423.969 459.383 423.665 458.809C423.424 458.372 423.186 457.938 422.95 457.508Z" fill="#E91F63" fill-opacity="0.6"/>
<path d="M431.847 476.277L384.852 476.277C384.016 476.277 383.338 476.955 383.338 477.791C383.338 478.627 384.016 479.305 384.852 479.305L433.073 479.305C432.672 478.292 432.263 477.283 431.847 476.277Z" fill="#E91F63"/>
<path d="M448.208 374.214C447.614 376.864 443.434 373.631 442.641 376.63C437.96 373.333 442.354 380.198 441.734 380.632L441.697 380.625L441.325 380.512C441.094 380.375 440.764 380.15 440.296 379.717C436.146 381.868 434.892 387.786 430.546 390.353C427.094 395.117 425.379 400.679 422.521 405.826C420.618 410.883 418.819 415.96 419.089 421.445C418.641 425.778 416.273 431.325 419.566 435.056C424.389 440.907 427.989 447.831 431.655 454.491C437.386 465.283 442.074 476.628 445.996 488.138C446.898 485.638 446.326 493.584 447.95 494.447C448.115 490.45 448.554 484.132 449.121 479.267C449.667 466.363 445.729 453.84 445.85 440.978C445.881 440.441 445.903 439.887 445.935 439.34L446.242 437.784L446.052 437.746C446.498 431.468 447.533 424.774 452.918 420.909C458.369 417.22 465.37 417.399 471.458 415.288C472.815 414.809 474.207 414.478 475.59 414.321C475.601 414.32 475.617 414.33 475.628 414.329C479.652 413.905 483.694 414.739 487.508 416.156C487.565 416.177 487.634 416.21 487.69 416.231C488.037 416.362 488.413 416.499 488.755 416.638C491.586 417.462 497.164 419.735 498.603 417.946C495.295 413.77 489.507 412.883 484.894 410.585C484.155 410.294 483.237 409.955 482.306 409.681L477.761 407.68L476.642 407.144L476.635 407.182L460.262 400.521C460.04 400.222 459.796 399.912 459.56 399.673L475.693 404.985L475.708 404.909C476.266 405.154 476.824 405.374 477.399 405.558L477.392 405.596L488.664 410.065C490.534 411.217 492.576 412.2 494.568 412.731C497.805 413.873 501.069 419.684 502.103 420.14C502.599 414.793 497.834 411.417 493.794 409.029C489.21 405.562 481.615 404.167 482.107 397.177C481.987 396.66 481.87 396.144 481.702 395.632L480.249 392.617L480.333 392.594C478.261 388.877 474.922 385.819 471.059 384.136C467.332 381.961 463.103 379.701 458.942 378.313C456.674 382.262 456.563 374.358 452.666 375.932C449.567 375.694 449.823 376.576 447.951 374.214L448.208 374.214ZM467.532 390.906C468.634 391.093 469.845 391.541 471.024 392.225C474.151 394.046 475.857 396.929 474.846 398.663C473.835 400.396 470.466 400.314 467.34 398.485C464.214 396.657 462.497 393.83 463.51 392.084C464.142 390.997 465.698 390.595 467.532 390.906Z" fill="#E91F63"/>
<path d="M466.591 399.038C469.725 401.043 473.309 401.039 474.595 399.029C475.881 397.019 474.383 393.764 471.248 391.759C468.114 389.754 464.531 389.758 463.245 391.768C461.959 393.778 463.457 397.033 466.591 399.038Z" fill="black"/>
<path fill-rule="evenodd" clip-rule="evenodd" d="M471.284 399.026C472.422 399.025 473.049 398.636 473.32 398.214C473.59 397.791 473.68 397.058 473.204 396.025C472.737 395.01 471.793 393.904 470.433 393.034C469.073 392.164 467.673 391.77 466.555 391.771C465.418 391.773 464.79 392.161 464.52 392.584C464.25 393.006 464.16 393.739 464.636 394.772C465.103 395.787 466.047 396.893 467.407 397.763C468.767 398.633 470.167 399.027 471.284 399.026ZM474.595 399.029C473.309 401.039 469.725 401.043 466.591 399.038C463.457 397.033 461.959 393.778 463.245 391.768C464.531 389.758 468.114 389.754 471.248 391.759C474.383 393.764 475.881 397.019 474.595 399.029Z" fill="white"/>
</svg>
